src/front/assets/enigma-color.svg

<?xml version="1.0" encoding="UTF-8" standalone="no"?>
<svg
	xmlns="http://www.w3.org/2000/svg" xmlns:svg="http://www.w3.org/2000/svg" version="1.1" viewBox="0 0 500 500" id="Enimgma color">
	<g id="icon">
		<path fill="#f95959"
			d="M 335.95,67.8 329.33,79 q -1,1.69 0.59,2.61 l 64.7,37.48 a 2.77,2.76 15.1 0 1 1.38,2.39 v 163.78 a 1.08,1.06 -15 0 1 -0.55,0.93 l -74.51,42.86 a 0.57,0.51 -30.4 0 1 -0.74,-0.15 l -6.18,-9.85 a 1.5,1.38 -30.7 0 1 0.59,-1.99 l 66.96,-38.53 a 1.51,1.5 -15.3 0 0 0.76,-1.32 C 382.1,227.4 382,177.61 382,127.79 a 0.98,0.97 14.7 0 0 -0.5,-0.85 L 311.17,86.5 a 0.53,0.52 -60.3 0 1 -0.19,-0.72 l 14.08,-24.62 a 0.53,0.5 29.5 0 0 -0.21,-0.7 L 252.87,19 a 1.63,1.52 16.1 0 1 -0.81,-1.35 l 0.03,-12.2 q 0,-2.42 2.15,-1.18 l 168.68,97.44 q 2.31,1.34 0.02,2.65 l -10.41,5.98 a 1.61,1.54 44.4 0 1 -1.57,-0.02 L 336.97,67.49 a 0.78,0.73 -60 0 0 -1.02,0.31 z"
			id="path8"/>
		<path fill="#f95959"
			d="m 91.99,294.56 c 1.71e-4,0.56821 -0.298816,1.08568 -0.78,1.35 l -11.75,6.56 c -0.19375,0.10596 -0.430192,-0.0425 -0.43,-0.27 l 0.04,-199.04 c 5.1e-5,-0.31039 0.163941,-0.59624 0.43,-0.75 l 91.81,-52.79 c 0.47216,-0.277811 1.08487,-0.106614 1.36,0.38 l 13.82,23.9 c 0.13681,0.234049 0.44154,0.31023 0.68,0.17 l 64.05,-37.18 c 0.31782,-0.183528 0.71566,0.04302 0.72,0.41 l 0.04,13.9 c 8.3e-4,0.568759 -0.30095,1.092107 -0.79,1.37 l -68.31,39.45 c -0.24492,0.143161 -0.55498,0.06677 -0.69,-0.17 L 168.02,67.89 c -0.13606,-0.244833 -0.4441,-0.334122 -0.69,-0.2 -25.2,13.74 -49.9,28.44 -74.83,42.66 -0.271474,0.15451 -0.439378,0.44452 -0.44,0.76 0,72.25702 -0.07,119.30378 -0.07,183.45 z"
			id="Top-left" />
		<path fill="#f95959"
			d="m 256.29,72.86 q 53.69,31.18 108.41,62.6 1.7,0.97 1.96,2.92 0.3,2.24 0.3,5.37 0.04,62.09 0.03,124.15 a 0.99,0.99 -75.1 0 1 -1.48,0.86 L 354,262.17 a 1.98,1.98 14.9 0 1 -1,-1.72 l -0.01,-115.14 a 1.85,1.84 -75.2 0 0 -0.92,-1.6 L 252.28,86.19 a 0.99,0.97 -44.5 0 0 -0.99,0 l -100.1,57.86 a 0.94,0.85 -44.3 0 1 -0.89,0.03 l -12.11,-6.79 q -1.13,-0.64 0.04,-1.31 55.23,-31.72 110.54,-64 c 3.43,-2 4.68,-0.77 7.52,0.88 z"
			id="Top-Right"/>
		<path fill="#f95959"
			d="m 229.95,149.73 a 0.76,0.74 -29.8 0 0 1.04,0.27 l 20.27,-11.78 a 1.58,1.51 44.4 0 1 1.55,0.02 l 54.09,31.36 a 2.22,2.17 15.4 0 1 1.1,1.89 l -0.01,32.37 a 1.12,1.11 -89.7 0 1 -1.12,1.12 l -55.21,-0.03 a 0.53,0.49 0 0 1 -0.53,-0.49 v -11.91 a 0.54,0.5 0 0 1 0.54,-0.5 l 42.67,-0.09 a 0.53,0.52 0.6 0 0 0.53,-0.51 l 0.06,-12.11 a 2.11,1.93 16.3 0 0 -1.06,-1.75 l -40.83,-23.48 a 2.3,2.26 44.7 0 0 -2.26,-0.01 l -41.07,23.67 a 1.03,1.01 -14.8 0 0 -0.51,0.86 q -0.72,25.35 -0.29,48.14 a 0.89,0.88 -75.6 0 0 0.44,0.75 l 41.95,24.3 a 0.89,0.89 90 0 0 0.88,0 l 40.83,-23.43 q 1.53,-0.88 3.13,-0.15 5.68,2.57 11.52,6.78 a 0.32,0.32 -42.1 0 1 -0.03,0.54 q -26.26,14.87 -52.17,30.2 c -2.86,1.69 -4.86,1.4 -7.54,-0.17 Q 222.36,250.6 196.59,235.71 a 1.15,1.15 -75.2 0 1 -0.58,-1 v -63.5 a 1.63,1.58 75.2 0 1 0.78,-1.39 l 21.51,-12.53 a 1.11,1.08 -29.9 0 0 0.42,-1.48 l -13.69,-23.87 a 0.69,0.68 59.8 0 1 0.24,-0.93 l 45.81,-26.49 a 1.02,0.93 -46.3 0 1 0.89,-0.06 q 1.43,0.62 4.31,2.29 40.02,23.13 80.17,46.05 a 0.77,0.75 44.2 0 1 0.03,1.31 l -10.95,6.66 a 2.54,2.46 43.9 0 1 -2.55,0.01 L 253.14,120.5 q -1.49,-0.86 -2.99,0.03 l -26.89,15.75 a 0.7,0.69 -30 0 0 -0.26,0.93 z"
			id="path14"/>
		<path fill="#f95959"
			d="m 121.55,191.94 28.89,0.18 a 0.51,0.5 90 0 1 0.5,0.51 l 0.04,68.1 a 1.25,1.22 -15.2 0 1 -0.63,1.07 l -12.07,6.95 A 0.85,0.85 -15.1 0 1 137,268.02 l -0.01,-62.48 a 0.5,0.5 0 0 0 -0.5,-0.5 l -13.44,-0.01 q -2.05,-0.01 -2.05,2.08 0,32.48 -0.01,64.83 c 0,2.35 -1.27,5.18 1.69,6.88 q 64.37,37.1 128.66,74.35 a 1.28,1.24 15.7 0 1 0.63,1.08 l -0.01,14.01 a 0.37,0.36 15 0 1 -0.55,0.31 l -53.42,-30.58 a 0.92,0.89 30.5 0 0 -1.23,0.3 l -7.06,11.95 a 0.86,0.83 30 0 0 0.33,1.16 l 60.73,35.02 a 2.36,2.35 44.8 0 0 2.37,0 l 157.88,-91.15 a 1.72,1.64 44 0 1 1.68,0.01 l 11.82,6.78 q 0.73,0.41 0.01,0.83 L 252.67,402.2 a 1.6,1.6 44.3 0 1 -1.6,0 l -79.05,-45.71 a 0.49,0.47 30.8 0 1 -0.18,-0.66 l 13.81,-23.84 a 1.23,1.22 -60 0 0 -0.44,-1.68 L 109.01,286.5 A 1.99,1.99 -75.3 0 1 108,284.77 V 120.6 q 0,-1.18 0.99,-0.61 l 11.11,6.42 a 1.98,1.71 -77.1 0 1 0.87,1.64 l 0.09,63.39 a 0.5,0.49 90 0 0 0.49,0.5 z"
			id="path16"/>
		<path fill="#f95959"
			d="m 180.75,244.94 70.05,40.66 a 1.78,1.76 44.7 0 0 1.77,0 l 70.99,-41.09 a 0.91,0.91 -15.1 0 0 0.44,-0.76 v -37.51 a 1.24,1.23 -90 0 1 1.23,-1.24 l 11.05,0.02 a 0.79,0.78 -90 0 1 0.78,0.79 l -0.03,45.95 a 0.89,0.82 76 0 1 -0.41,0.75 l -34.3,19.68 a 0.75,0.73 -30.4 0 0 -0.28,1.01 l 13.69,23.2 a 1.5,1.48 59.6 0 1 -0.52,2.05 l -61.63,35.7 q -1.78,1.04 -3.57,0 l -48.57,-28.2 a 1.01,0.99 30.4 0 1 -0.37,-1.37 l 5.57,-9.5 a 1.54,1.51 30.6 0 1 2.1,-0.52 q 19.1,11.25 38.63,22.48 c 2.67,1.54 3.89,3.04 7.09,1.16 q 8.96,-5.24 43.73,-25.33 a 0.5,0.5 0 0 0 0.18,-0.68 l -7.27,-12.6 a 0.74,0.73 -30.6 0 0 -1.01,-0.25 q -16.17,9.54 -32.51,18.74 -3.84,2.16 -6.32,2.6 a 1.42,1.29 52.6 0 1 -0.93,-0.17 l -83.3,-47.97 A 2.04,2.02 -75.4 0 1 166,250.77 v -95.43 q 0,-2.25 1.92,-1.16 l 11.19,6.38 a 1.92,1.75 -76.3 0 1 0.88,1.61 q 0.03,38.8 -0.01,77.27 0,3.34 0.23,4.76 a 1.15,1 13.1 0 0 0.54,0.74 z"
			id="path22"/>
	</g>
	<g id="text">
		<path id="E-Upper"
			d="M56.05,429.43 c1.52,1.19 0.98,7.01 0.83,9.01 a0.55,0.54 2.2 0 1 -0.55,0.5 H19.66 a0.53,0.51 0 0 1 -0.53,-0.51 l-0.07,-8.78 A0.67,0.64 -0.4 0 1 19.73,429 l35.11,0.01 a1.96,1.94 -25.6 0 1 1.21,0.42 "
			fill="#f95959"></path>
		<path id="E-Lower"
			d="M31.05,464.56 m-0.01,14.92 a0.51,0.5 0 0 0 0.51,0.5 l24.29,0.03 a1.17,1.11 1.4 0 1 1.17,1.17 l-0.39,7.51 a1.43,1.36 1.5 0 1 -1.42,1.29 l-35.89,0.01 a0.3,0.3 89.7 0 1 -0.3,-0.3 v-35.38 a0.3,0.3 -89.7 0 1 0.3,-0.3 h34.98 a0.72,0.71 -90 0 1 0.71,0.72 v8.78 a0.51,0.51 1.3 0 1 -0.51,0.51 l-22.92,0.04 a0.52,0.5 0 0 0 -0.52,0.5 "
			fill="#f95959"></path>
		<path id="N"
			d="M135.94,472.52 m0.05,-42.14 a1.37,1.33 -89.8 0 1 1.34,-1.37 l10.15,0.03 a0.51,0.5 -89.4 0 1 0.49,0.51 l-0.02,59.79 a0.52,0.5 -90 0 1 -0.5,0.52 l-14.97,0.05 a0.79,0.73 75.5 0 1 -0.69,-0.44 l-20.93,-41.75 q-2.12,-4.23 -2.1,0.52 l0.19,40.83 a0.93,0.92 0 0 1 -0.93,0.92 L98.7,489.98 A0.71,0.7 90 0 1 98,489.27 V429.73 A0.73,0.73 -89.4 0 1 98.73,429 l14.26,0.02 a0.8,0.8 76.9 0 1 0.72,0.45 l21.47,42.94 a0.58,0.33 68.4 0 0 0.44,0.35 l0.16,-0.02 a0.23,0.18 87.2 0 0 0.16,-0.22 "
			fill="#f95959"></path>
		<rect id="I" fill="#f95959" x="191" height="61" y="428.98999" width="12" rx="0.69999999"></rect>
		<path id="G"
			d="M276.95,479.18 M277,464.74 a0.74,0.73 -90 0 1 0.73,-0.74 l9.29,0.02 a0.97,0.97 0 0 1 0.97,0.97 l-0.02,23.49 a0.61,0.6 -5.2 0 1 -0.5,0.59 c-14.06,2.61 -42.18,6.81 -42.64,-15.64 q-0.07,-3.51 0.13,-19.65 c0.13,-10.48 -0.4,-18.42 8.63,-23.21 c8.01,-4.24 21.21,-2.95 30.84,-1.31 a1.84,1.84 -82.3 0 1 1.52,2 l-0.7,7.24 a1.42,1.4 -85.1 0 1 -1.49,1.27 q-8.36,-0.54 -16.73,-0.95 c-5.88,-0.29 -9.51,2.06 -9.79,8.08 q-0.48,10.5 -0.19,20.92 c0.18,6.44 0.16,11.46 7.41,12.25 q5.62,0.61 11.99,-0.31 a0.6,0.58 86.6 0 0 0.5,-0.58 "
			fill="#f95959"></path>
		<path id="M"
			d="M342.03,455.52 m-1.18,33.03 a1.79,1.72 1.8 0 1 -1.84,1.66 l-8.96,-0.26 a1.44,1.43 2.2 0 1 -1.39,-1.49 l2.5,-58.17 a1.21,1.15 -88.7 0 1 1.15,-1.16 l11.98,0.01 a0.78,0.71 78.6 0 1 0.68,0.5 l14.72,40.32 q0.63,1.73 1.26,0 l14.57,-40.17 a1.16,1.15 -79.8 0 1 1.08,-0.76 l11.63,-0.01 a1.02,1.01 88.5 0 1 1.01,0.97 q1.31,27.51 2.52,55.01 q0.12,2.74 -0.34,4.51 a0.65,0.63 6.8 0 1 -0.63,0.48 l-10,0.01 a0.8,0.79 -1.9 0 1 -0.8,-0.74 q-1.34,-17.1 -0.94,-34.25 q0.04,-1.49 -0.73,-1.37 a1.01,0.63 -78.5 0 0 -0.62,0.65 l-9.51,26.69 a1.36,1.35 9.7 0 1 -1.28,0.9 l-14.03,0.01 a0.73,0.67 79.7 0 1 -0.65,-0.49 l-9.08,-26.08 q-1,-2.88 -1.12,0.2 "
			fill="#f95959"></path>
		<path id="A"
			d="M457.27,440.24 m-0.22,0.01 a0.4,0.31 -81.2 0 0 -0.29,0.28 l-14.32,48.77 a0.96,0.96 8.1 0 1 -0.92,0.69 l-10.78,-0.01 a0.75,0.74 -81.4 0 1 -0.71,-0.97 l18.83,-59.36 a1.26,1.15 7.8 0 1 1.18,-0.82 l14.52,0.01 a1.42,1.31 -8.1 0 1 1.33,0.92 l18.79,59.69 a0.44,0.43 -8.4 0 1 -0.42,0.56 l-11.55,0.04 a0.66,0.66 81.7 0 1 -0.63,-0.47 l-14.27,-48.86 a0.65,0.46 76.5 0 0 -0.54,-0.48 "
			fill="#f95959"></path>
	</g>
</svg>

<?xml version="1.0" encoding="UTF-8" standalone="no"?>
<svg
   version="1.1"
   viewBox="0 0 500 500"
   id="svg38"
   sodipodi:docname="enigma-color.svg"
   inkscape:version="1.2 (dc2aedaf03, 2022-05-15)"
   xmlns:inkscape="http://www.inkscape.org/namespaces/inkscape"
   xmlns:sodipodi="http://sodipodi.sourceforge.net/DTD/sodipodi-0.dtd"
   xmlns="http://www.w3.org/2000/svg"
   xmlns:svg="http://www.w3.org/2000/svg">
  <defs
     id="defs42" />
  <sodipodi:namedview
     id="namedview40"
     pagecolor="#ffffff"
     bordercolor="#000000"
     borderopacity="0.25"
     inkscape:showpageshadow="2"
     inkscape:pageopacity="0.0"
     inkscape:pagecheckerboard="0"
     inkscape:deskcolor="#d1d1d1"
     showgrid="false"
     inkscape:zoom="0.83"
     inkscape:cx="-128.31325"
     inkscape:cy="244.57831"
     inkscape:window-width="1920"
     inkscape:window-height="1009"
     inkscape:window-x="-8"
     inkscape:window-y="-8"
     inkscape:window-maximized="1"
     inkscape:current-layer="svg38" />
  <g
     id="g383"
     style="fill:#f95959;fill-opacity:1">
    <path
       fill="#23272f"
       d="   M 335.95 67.80   L 329.33 79.00   Q 328.33 80.69 329.92 81.61   L 394.62 119.09   A 2.77 2.76 15.1 0 1 396.00 121.48   L 396.00 285.26   A 1.08 1.06 -15.0 0 1 395.45 286.19   L 320.94 329.05   A 0.57 0.51 -30.4 0 1 320.20 328.90   L 314.02 319.05   A 1.50 1.38 -30.7 0 1 314.61 317.06   L 381.57 278.53   A 1.51 1.50 -15.3 0 0 382.33 277.21   C 382.10 227.40 382.00 177.61 382.00 127.79   A 0.98 0.97 14.7 0 0 381.50 126.94   L 311.17 86.50   A 0.53 0.52 -60.3 0 1 310.98 85.78   L 325.06 61.16   A 0.53 0.50 29.5 0 0 324.85 60.46   L 252.87 19.00   A 1.63 1.52 16.1 0 1 252.06 17.65   L 252.09 5.45   Q 252.09 3.03 254.24 4.27   L 422.92 101.71   Q 425.23 103.05 422.94 104.36   L 412.53 110.34   A 1.61 1.54 44.4 0 1 410.96 110.32   L 336.97 67.49   A 0.78 0.73 -60.0 0 0 335.95 67.80   Z"
       id="path8"
       style="fill:#f95959;fill-opacity:1" />
    <path
       fill="#23272f"
       d="m 91.99,294.56 c 1.71e-4,0.56821 -0.298816,1.08568 -0.78,1.35 l -11.75,6.56 c -0.19375,0.10596 -0.430192,-0.0425 -0.43,-0.27 l 0.04,-199.04 c 5.1e-5,-0.31039 0.163941,-0.59624 0.43,-0.75 l 91.81,-52.79 c 0.47216,-0.277811 1.08487,-0.106614 1.36,0.38 l 13.82,23.9 c 0.13681,0.234049 0.44154,0.31023 0.68,0.17 l 64.05,-37.18 c 0.31782,-0.183528 0.71566,0.04302 0.72,0.41 l 0.04,13.9 c 8.3e-4,0.568759 -0.30095,1.092107 -0.79,1.37 l -68.31,39.45 c -0.24492,0.143161 -0.55498,0.06677 -0.69,-0.17 L 168.02,67.89 c -0.13606,-0.244833 -0.4441,-0.334122 -0.69,-0.2 -25.2,13.74 -49.9,28.44 -74.83,42.66 -0.271474,0.15451 -0.439378,0.44452 -0.44,0.76 0,72.25702 -0.07,119.30378 -0.07,183.45 z"
       id="path10"
       sodipodi:nodetypes="ccccccccccccccccccccc"
       style="fill:#f95959;fill-opacity:1" />
    <path
       fill="#23272f"
       d="   M 256.29 72.86   Q 309.98 104.04 364.70 135.46   Q 366.40 136.43 366.66 138.38   Q 366.96 140.62 366.96 143.75   Q 367.00 205.84 366.99 267.90   A 0.99 0.99 -75.1 0 1 365.51 268.76   L 354.00 262.17   A 1.98 1.98 14.9 0 1 353.00 260.45   L 352.99 145.31   A 1.85 1.84 -75.2 0 0 352.07 143.71   L 252.28 86.19   A 0.99 0.97 -44.5 0 0 251.29 86.19   L 151.19 144.05   A 0.94 0.85 -44.3 0 1 150.30 144.08   L 138.19 137.29   Q 137.06 136.65 138.23 135.98   Q 193.46 104.26 248.77 71.98   C 252.20 69.98 253.45 71.21 256.29 72.86   Z"
       id="path12"
       style="fill:#f95959;fill-opacity:1" />
    <path
       fill="#23272f"
       d="   M 229.95 149.73   A 0.76 0.74 -29.8 0 0 230.99 150.00   L 251.26 138.22   A 1.58 1.51 44.4 0 1 252.81 138.24   L 306.90 169.60   A 2.22 2.17 15.4 0 1 308.00 171.49   L 307.99 203.86   A 1.12 1.11 -89.7 0 1 306.87 204.98   L 251.66 204.95   A 0.53 0.49 0.0 0 1 251.13 204.46   L 251.13 192.55   A 0.54 0.50 -0.0 0 1 251.67 192.05   L 294.34 191.96   A 0.53 0.52 0.6 0 0 294.87 191.45   L 294.93 179.34   A 2.11 1.93 16.3 0 0 293.87 177.59   L 253.04 154.11   A 2.30 2.26 44.7 0 0 250.78 154.10   L 209.71 177.77   A 1.03 1.01 -14.8 0 0 209.20 178.63   Q 208.48 203.98 208.91 226.77   A 0.89 0.88 -75.6 0 0 209.35 227.52   L 251.30 251.82   A 0.89 0.89 90.0 0 0 252.18 251.82   L 293.01 228.39   Q 294.54 227.51 296.14 228.24   Q 301.82 230.81 307.66 235.02   A 0.32 0.32 -42.1 0 1 307.63 235.56   Q 281.37 250.43 255.46 265.76   C 252.60 267.45 250.60 267.16 247.92 265.59   Q 222.36 250.60 196.59 235.71   A 1.15 1.15 -75.2 0 1 196.01 234.71   L 196.01 171.21   A 1.63 1.58 75.2 0 1 196.79 169.82   L 218.30 157.29   A 1.11 1.08 -29.9 0 0 218.72 155.81   L 205.03 131.94   A 0.69 0.68 59.8 0 1 205.27 131.01   L 251.08 104.52   A 1.02 0.93 -46.3 0 1 251.97 104.46   Q 253.40 105.08 256.28 106.75   Q 296.30 129.88 336.45 152.80   A 0.77 0.75 44.2 0 1 336.48 154.11   L 325.53 160.77   A 2.54 2.46 43.9 0 1 322.98 160.78   L 253.14 120.50   Q 251.65 119.64 250.15 120.53   L 223.26 136.28   A 0.70 0.69 -30.0 0 0 223.00 137.21   L 229.95 149.73   Z"
       id="path14"
       style="fill:#f95959;fill-opacity:1" />
    <path
       fill="#23272f"
       d="   M 121.55 191.94   L 150.44 192.12   A 0.51 0.50 90.0 0 1 150.94 192.63   L 150.98 260.73   A 1.25 1.22 -15.2 0 1 150.35 261.80   L 138.28 268.75   A 0.85 0.85 -15.1 0 1 137.00 268.02   L 136.99 205.54   A 0.50 0.50 0.0 0 0 136.49 205.04   L 123.05 205.03   Q 121.00 205.02 121.00 207.11   Q 121.00 239.59 120.99 271.94   C 120.99 274.29 119.72 277.12 122.68 278.82   Q 187.05 315.92 251.34 353.17   A 1.28 1.24 15.7 0 1 251.97 354.25   L 251.96 368.26   A 0.37 0.36 15.0 0 1 251.41 368.57   L 197.99 337.99   A 0.92 0.89 30.5 0 0 196.76 338.29   L 189.70 350.24   A 0.86 0.83 30.0 0 0 190.03 351.40   L 250.76 386.42   A 2.36 2.35 44.8 0 0 253.13 386.42   L 411.01 295.27   A 1.72 1.64 44.0 0 1 412.69 295.28   L 424.51 302.06   Q 425.24 302.47 424.52 302.89   L 252.67 402.20   A 1.60 1.60 44.3 0 1 251.07 402.20   L 172.02 356.49   A 0.49 0.47 30.8 0 1 171.84 355.83   L 185.65 331.99   A 1.23 1.22 -60.0 0 0 185.21 330.31   L 109.01 286.50   A 1.99 1.99 -75.3 0 1 108.00 284.77   L 108.00 120.60   Q 108.00 119.42 108.99 119.99   L 120.10 126.41   A 1.98 1.71 -77.1 0 1 120.97 128.05   L 121.06 191.44   A 0.50 0.49 90.0 0 0 121.55 191.94   Z"
       id="path16"
       style="fill:#f95959;fill-opacity:1" />
    <path
       fill="#23272f"
       d="   M 180.75 244.94   L 250.80 285.60   A 1.78 1.76 44.7 0 0 252.57 285.60   L 323.56 244.51   A 0.91 0.91 -15.1 0 0 324.00 243.75   L 324.00 206.24   A 1.24 1.23 -90.0 0 1 325.23 205.00   L 336.28 205.02   A 0.79 0.78 -90.0 0 1 337.06 205.81   L 337.03 251.76   A 0.89 0.82 76.0 0 1 336.62 252.51   L 302.32 272.19   A 0.75 0.73 -30.4 0 0 302.04 273.20   L 315.73 296.40   A 1.50 1.48 59.6 0 1 315.21 298.45   L 253.58 334.15   Q 251.80 335.19 250.01 334.15   L 201.44 305.95   A 1.01 0.99 30.4 0 1 201.07 304.58   L 206.64 295.08   A 1.54 1.51 30.6 0 1 208.74 294.56   Q 227.84 305.81 247.37 317.04   C 250.04 318.58 251.26 320.08 254.46 318.20   Q 263.42 312.96 298.19 292.87   A 0.50 0.50 0.0 0 0 298.37 292.19   L 291.10 279.59   A 0.74 0.73 -30.6 0 0 290.09 279.34   Q 273.92 288.88 257.58 298.08   Q 253.74 300.24 251.26 300.68   A 1.42 1.29 52.6 0 1 250.33 300.51   L 167.03 252.54   A 2.04 2.02 -75.4 0 1 166.00 250.77   L 166.00 155.34   Q 166.00 153.09 167.92 154.18   L 179.11 160.56   A 1.92 1.75 -76.3 0 1 179.99 162.17   Q 180.02 200.97 179.98 239.44   Q 179.98 242.78 180.21 244.20   A 1.15 1.00 13.1 0 0 180.75 244.94   Z"
       id="path22"
       style="fill:#f95959;fill-opacity:1" />
  </g>
  <g
     id="g392"
     style="fill:#f95959;fill-opacity:1">
    <path
       fill="#23272f"
       d="   M 276.95 479.18   L 277.00 464.74   A 0.74 0.73 -90.0 0 1 277.73 464.00   L 287.02 464.02   A 0.97 0.97 0.0 0 1 287.99 464.99   L 287.97 488.48   A 0.61 0.60 -5.2 0 1 287.47 489.07   C 273.41 491.68 245.29 495.88 244.83 473.43   Q 244.76 469.92 244.96 453.78   C 245.09 443.30 244.56 435.36 253.59 430.57   C 261.60 426.33 274.80 427.62 284.43 429.26   A 1.84 1.84 -82.3 0 1 285.95 431.26   L 285.25 438.50   A 1.42 1.40 -85.1 0 1 283.76 439.77   Q 275.40 439.23 267.03 438.82   C 261.15 438.53 257.52 440.88 257.24 446.90   Q 256.76 457.40 257.05 467.82   C 257.23 474.26 257.21 479.28 264.46 480.07   Q 270.08 480.68 276.45 479.76   A 0.60 0.58 86.6 0 0 276.95 479.18   Z"
       id="path24"
       style="fill:#f95959;fill-opacity:1" />
    <path
       fill="#23272f"
       d="   M 457.27 440.24   L 457.05 440.25   A 0.40 0.31 -81.2 0 0 456.76 440.53   L 442.44 489.30   A 0.96 0.96 8.1 0 1 441.52 489.99   L 430.74 489.98   A 0.75 0.74 -81.4 0 1 430.03 489.01   L 448.86 429.65   A 1.26 1.15 7.8 0 1 450.04 428.83   L 464.56 428.84   A 1.42 1.31 -8.1 0 1 465.89 429.76   L 484.68 489.45   A 0.44 0.43 -8.4 0 1 484.26 490.01   L 472.71 490.05   A 0.66 0.66 81.7 0 1 472.08 489.58   L 457.81 440.72   A 0.65 0.46 76.5 0 0 457.27 440.24   Z"
       id="path26"
       style="fill:#f95959;fill-opacity:1" />
    <path
       fill="#23272f"
       d="   M 56.05 429.43   C 57.57 430.62 57.03 436.44 56.88 438.44   A 0.55 0.54 2.2 0 1 56.33 438.94   L 19.66 438.94   A 0.53 0.51 0.0 0 1 19.13 438.43   L 19.06 429.65   A 0.67 0.64 -0.4 0 1 19.73 429.00   L 54.84 429.01   A 1.96 1.94 -25.6 0 1 56.05 429.43   Z"
       id="path28"
       style="fill:#f95959;fill-opacity:1" />
    <path
       fill="#23272f"
       d="   M 135.94 472.52   L 135.99 430.38   A 1.37 1.33 -89.8 0 1 137.33 429.01   L 147.48 429.04   A 0.51 0.50 -89.4 0 1 147.97 429.55   L 147.95 489.34   A 0.52 0.50 -90.0 0 1 147.45 489.86   L 132.48 489.91   A 0.79 0.73 75.5 0 1 131.79 489.47   L 110.86 447.72   Q 108.74 443.49 108.76 448.24   L 108.95 489.07   A 0.93 0.92 -0.0 0 1 108.02 489.99   L 98.70 489.98   A 0.71 0.70 90.0 0 1 98.00 489.27   L 98.00 429.73   A 0.73 0.73 -89.4 0 1 98.73 429.00   L 112.99 429.02   A 0.80 0.80 76.9 0 1 113.71 429.47   L 135.18 472.41   A 0.58 0.33 68.4 0 0 135.62 472.76   L 135.78 472.74   A 0.23 0.18 87.2 0 0 135.94 472.52   Z"
       id="path30"
       style="fill:#f95959;fill-opacity:1" />
    <rect
       fill="#23272f"
       x="191.00"
       y="428.99"
       width="12.00"
       height="61.00"
       rx="0.70"
       id="rect32"
       style="fill:#f95959;fill-opacity:1" />
    <path
       fill="#23272f"
       d="   M 342.03 455.52   L 340.85 488.55   A 1.79 1.72 1.8 0 1 339.01 490.21   L 330.05 489.95   A 1.44 1.43 2.2 0 1 328.66 488.46   L 331.16 430.29   A 1.21 1.15 -88.7 0 1 332.31 429.13   L 344.29 429.14   A 0.78 0.71 78.6 0 1 344.97 429.64   L 359.69 469.96   Q 360.32 471.69 360.95 469.96   L 375.52 429.79   A 1.16 1.15 -79.8 0 1 376.60 429.03   L 388.23 429.02   A 1.02 1.01 88.5 0 1 389.24 429.99   Q 390.55 457.50 391.76 485.00   Q 391.88 487.74 391.42 489.51   A 0.65 0.63 6.8 0 1 390.79 489.99   L 380.79 490.00   A 0.80 0.79 -1.9 0 1 379.99 489.26   Q 378.65 472.16 379.05 455.01   Q 379.09 453.52 378.32 453.64   A 1.01 0.63 -78.5 0 0 377.70 454.29   L 368.19 480.98   A 1.36 1.35 9.7 0 1 366.91 481.88   L 352.88 481.89   A 0.73 0.67 79.7 0 1 352.23 481.40   L 343.15 455.32   Q 342.15 452.44 342.03 455.52   Z"
       id="path34"
       style="fill:#f95959;fill-opacity:1" />
    <path
       fill="#23272f"
       d="   M 31.05 464.56   L 31.04 479.48   A 0.51 0.50 0.0 0 0 31.55 479.98   L 55.84 480.01   A 1.17 1.11 1.4 0 1 57.01 481.18   L 56.62 488.69   A 1.43 1.36 1.5 0 1 55.20 489.98   L 19.31 489.99   A 0.30 0.30 89.7 0 1 19.01 489.69   L 19.01 454.31   A 0.30 0.30 -89.7 0 1 19.31 454.01   L 54.29 454.01   A 0.72 0.71 -90.0 0 1 55.00 454.73   L 55.00 463.51   A 0.51 0.51 1.3 0 1 54.49 464.02   L 31.57 464.06   A 0.52 0.50 0.0 0 0 31.05 464.56   Z"
       id="path36"
       style="fill:#f95959;fill-opacity:1" />
  </g>
</svg>
